X: 10349
T: Don't Leave Me Alone
R: slip jig
M: 9/8
K: Gmajor
g2 f efg dcB|e2 A ABG FED|g2f efg dcB|c2 B AGF G2:|
|:BAB dcB dcB|e2A ABG FED|B2 B dcB dcB|c2 B AGF G2:|

